X:3051
L:1/8
M:6/8
K:D
 A | d>ed A2 A | B>cB A2 A | G2 E A2 A | D2 z z2 A | d>dd A>BA | B>cB AGF | G2 E A2 A | D2 z z2 D | 
 F3/2 F/ F F2 F | G3/2 G/ G2 G | A2 A g2 e | d3 c2 A | d2 d A2 A | B2 B A2 F | G2 E A2 A | 
 D2 z z2 x |]

